bots/hooky/normal.svg

<svg width="2048" height="2048" fill="none" xmlns="http://www.w3.org/2000/svg"><path fill="url(#a)" d="M0 0h2048v2048H0z"/><path d="M1505.69 1272.26c12.36-43.28-12.71-88.39-55.99-100.74-43.29-12.36-88.39 12.71-100.75 55.99l156.74 44.75ZM1028 507.008h-81.503H1028Zm320.95 720.502a329.432 329.432 0 0 1-94.76 152.97l109.86 120.41a492.538 492.538 0 0 0 141.64-228.63l-156.74-44.75Zm-94.76 152.97a329.471 329.471 0 0 1-161 80.39l30.24 160.17a492.464 492.464 0 0 0 240.62-120.15l-109.86-120.41Zm-161 80.39a329.462 329.462 0 0 1-179.216-16.16l-58.405 152.18a492.526 492.526 0 0 0 267.861 24.15l-30.24-160.17Zm-179.216-16.16a329.547 329.547 0 0 1-144.015-107.89l-129.634 98.81a492.522 492.522 0 0 0 215.244 161.26l58.405-152.18Zm-144.015-107.89a329.568 329.568 0 0 1-65.87-167.46l-162.214 15.99a492.557 492.557 0 0 0 98.45 250.28l129.634-98.81Zm-65.87-167.46a329.556 329.556 0 0 1 31.913-177.096l-146.43-71.605a492.558 492.558 0 0 0-47.697 264.691l162.214-15.99Zm31.913-177.096c24.925-50.969 72.957-98.48 128.992-133.84l-86.988-137.848c-72.959 46.04-146.352 114.027-188.434 200.083l146.43 71.605ZM946.497 0v507.008H1109.5V0H946.497Zm-81.503 858.424c55.49-35.017 114.944-80.759 161.266-137.314 46.56-56.84 83.24-128.95 83.24-214.102H946.497c0 36.142-15.285 72.913-46.33 110.813-31.278 38.184-75.073 73.041-122.161 102.755l86.988 137.848Z" fill="#424242"/><defs><linearGradient id="a" x1="2048" y1="0" x2="0" y2="2048" gradientUnits="userSpaceOnUse"><stop stop-color="#F2D478"/><stop offset="1" stop-color="#EDC575"/></linearGradient></defs></svg>

<svg width="2048" height="2048" viewBox="0 0 2048 2048" fill="none" xmlns="http://www.w3.org/2000/svg">
<rect width="2048" height="2048" fill="url(#paint0_linear_1682:3012)"/>
<path d="M1505.69 1272.26C1518.05 1228.98 1492.98 1183.87 1449.7 1171.52C1406.41 1159.16 1361.31 1184.23 1348.95 1227.51L1505.69 1272.26ZM1028 507.008H946.497H1028ZM1348.95 1227.51C1332.17 1286.31 1299.36 1339.27 1254.19 1380.48L1364.05 1500.89C1431.56 1439.3 1480.6 1360.13 1505.69 1272.26L1348.95 1227.51ZM1254.19 1380.48C1209.02 1421.7 1153.28 1449.53 1093.19 1460.87L1123.43 1621.04C1213.23 1604.09 1296.55 1562.49 1364.05 1500.89L1254.19 1380.48ZM1093.19 1460.87C1033.11 1472.22 971.058 1466.62 913.974 1444.71L855.569 1596.89C940.888 1629.63 1033.63 1638 1123.43 1621.04L1093.19 1460.87ZM913.974 1444.71C856.889 1422.8 807.026 1385.45 769.959 1336.82L640.325 1435.63C695.724 1508.31 770.251 1564.15 855.569 1596.89L913.974 1444.71ZM769.959 1336.82C732.893 1288.19 710.086 1230.21 704.089 1169.36L541.875 1185.35C550.838 1276.29 584.925 1362.95 640.325 1435.63L769.959 1336.82ZM704.089 1169.36C698.092 1108.51 709.142 1047.19 736.002 992.264L589.572 920.659C549.427 1002.75 532.912 1094.4 541.875 1185.35L704.089 1169.36ZM736.002 992.264C760.927 941.295 808.959 893.784 864.994 858.424L778.006 720.576C705.047 766.616 631.654 834.603 589.572 920.659L736.002 992.264ZM946.497 3.42587e-06L946.497 507.008H1109.5L1109.5 -3.42587e-06L946.497 3.42587e-06ZM864.994 858.424C920.484 823.407 979.938 777.665 1026.26 721.11C1072.82 664.27 1109.5 592.16 1109.5 507.008H946.497C946.497 543.15 931.212 579.921 900.167 617.821C868.889 656.005 825.094 690.862 778.006 720.576L864.994 858.424Z" fill="#424242"/>
<defs>
<linearGradient id="paint0_linear_1682:3012" x1="2048" y1="0" x2="0" y2="2048" gradientUnits="userSpaceOnUse">
<stop stop-color="#F2D478"/>
<stop offset="1" stop-color="#EDC575"/>
</linearGradient>
</defs>
</svg>
